assets/icons/traton/document_pdf.svg

<svg xmlns="http://www.w3.org/2000/svg" width="32" height="32" viewBox="0 0 32 32" fill="none">
<path d="M7.9668 22.3223C8.63901 22.3223 9.22138 22.4341 9.71289 22.6582C10.2113 22.8822 10.594 23.2005 10.8613 23.6123C11.1288 24.0243 11.2627 24.5124 11.2627 25.0762C11.2627 25.6327 11.1288 26.1208 10.8613 26.54C10.594 26.9518 10.2114 27.2701 9.71289 27.4941C9.22138 27.711 8.63901 27.8193 7.9668 27.8193H6.43848V29.9121H4.68164V22.3223H7.9668ZM16.0186 22.3223C16.8426 22.3223 17.5694 22.4818 18.1982 22.7998C18.8342 23.1106 19.3259 23.5511 19.6729 24.1221C20.027 24.6931 20.2041 25.3582 20.2041 26.1172C20.2041 26.8761 20.027 27.5413 19.6729 28.1123C19.3259 28.6832 18.8342 29.1273 18.1982 29.4453C17.5694 29.7561 16.8426 29.9121 16.0186 29.9121H12.5713V22.3223H16.0186ZM27.3184 23.7314H23.3389V25.7373H26.8525V27.1475H23.3389V29.9121H21.583V22.3223H27.3184V23.7314ZM14.3271 28.4697H15.9326C16.6914 28.4697 17.2951 28.26 17.7432 27.8408C18.1984 27.4144 18.4257 26.8398 18.4258 26.1172C18.4258 25.3945 18.1983 24.8235 17.7432 24.4043C17.2951 23.9779 16.6914 23.7647 15.9326 23.7646H14.3271V28.4697ZM6.43848 26.3877H7.86914C8.39669 26.3877 8.7976 26.2757 9.07227 26.0518C9.34693 25.8205 9.48438 25.4954 9.48438 25.0762C9.48437 24.6497 9.34693 24.3247 9.07227 24.1006C8.7976 23.8694 8.39669 23.7539 7.86914 23.7539H6.43848V26.3877ZM26 11.5859V20.0068H24V13H15V4H8V20H6V2H16.4141L26 11.5859ZM17 11H22.5859L17 5.41406V11Z" fill="#001D21" />
</svg>

<svg xmlns="http://www.w3.org/2000/svg" fill="none" viewBox="0 0 32 32"><path fill="#001d21" d="M8 22.3q1 0 1.7.4.8.3 1.2 1 .3.5.4 1.4 0 .8-.4 1.4-.4.7-1.2 1t-1.7.3H6.4V30H4.7v-7.6zm8 0q1.3 0 2.2.5t1.5 1.3q.5 1 .5 2 0 1.1-.5 2t-1.5 1.3-2.2.5h-3.4v-7.6zm11.3 1.4h-4v2H27v1.4h-3.6V30h-1.7v-7.6h5.7zm-13 4.8H16q1.2 0 1.8-.7t.7-1.7-.7-1.7q-.6-.6-1.8-.6h-1.6zm-7.9-2.1H8q.8 0 1.2-.3.3-.4.4-1 0-.7-.4-1t-1.2-.3H6.4zM26 11.6V20h-2v-7h-9V4H8v16H6V2h10.4zm-9-.6h5.6L17 5.4z"/></svg>
